X:118
T:Gandzia Polka
D:Early Mandolin Classics
Z:Nigel Gatherer
M:2/4
L:1/8
K:Dm
P: ABBACCA
A/f/f/e/ e/d/d/A/|cB/c/ B/A/B|^G/A/^c/e/ a3/g/|gf/g/ f/e/f|Af/e/
e/d/d/A/|
cB/c/ B/A/B|^G^c/e/ a/g/f/e/|df d z|:c/d/e/f/ gb|ba/b/ a/^g/a|
ag/a/ g/^f/g|gf/g/ f/e/f|A/=B/^c/d/ eg|gf/g/ f/e/f|A/^c/e/g/ ac|
dd/^c/ d z::c/d/c/=B/ cA|c/d/c/f/ a2|a/g/g/b/ e2|g/f/f/a/ c2|
c/d/c/=B/ cA|c/d/c/f/ a2|a/g/g/b/ de|f/g/f/e/ f z :|]
